X:1
T:Title
%%score ( 1 2 ) { 3 | 4 }
L:1/8
Q:1/4=110
M:4/4
K:Bb
V:1 treble nm="Grand Piano, Soprano"
V:2 treble 
V:3 bass nm="Choir Pad, Christus Der Uns Selig Macht"
V:4 bass 
V:1
 [Gd]2 [Gd]2 [Fd]2 [Fc]2 | [Ec]2 [DB]2 [DA]4 | [DG]2 [DF]2 [B,G]2 [DA]2 | [Ec]6 [DB]2 | [DA]4 z4 | %5
w: By~Michael~Weisse,~1531 * * *|||||
 [DG]2 [DA]2 [DB]2 [EG]2 | [DG]2 [CE]2 [=B,D]4 | [G,C]2 [G,=B,]2 [G,C]2 [_B,D]2 | F6 z2 | %9
w: ||||
 [=B,D]4 z4 | [EG]2 [EG]2 [EG]2 [DF]2 | [CE]2 [=B,D]2 C4 | [CF]2 [DF]2 [B,G]2 [DA]2 | [Ec]6 [DB]2 | %14
w: |||||
 [DA]4 z4 | [DG]2 [DA]2 [DB]2 [EG]2 | [DG]2 [CE]2 [=B,D]4 | [G,C]2 [G,=B,]2 [G,C]2 [_B,D]2 | %18
w: ||||
 F6 z2 | [=B,D]8 |] %20
w: ||
V:2
 x8 | x8 | x8 | x8 | x8 | x8 | x8 | x8 | C6- [CE]2 | x8 | x8 | x8 | x8 | x8 | x8 | x8 | x8 | x8 | %18
 C6- [CE]2 | x8 |] %20
V:3
 B,2 B,2 B,2 A,2 | G,2 G,2 ^F,4 | B,2 B,2 G,2 ^F,2 | G,8 | ^F,4 z4 | B,2 A,2 G,2 B,2 | %6
 B,2 G,2 G,4 | E,2 D,2 E,2 F,2 | A,6 G,2 | G,4 z4 | B,2 B,2 B,2 B,2 | G,2 G,2 =E,4 | %12
 F,2 B,2 G,2 ^F,2 | G,8 | ^F,4 z4 | B,2 A,2 G,2 B,2 | B,2 G,2 G,4 | E,2 D,2 E,2 F,2 | A,6 G,2 | %19
 G,8 |] %20
V:4
 G,2 G,2 z2 F,2 | C,2 G,,2 D,4 | G,,2 B,,2 E,2 D,2 | C,6 G,,2 | D,4 z4 | G,2 ^F,2 z2 E,2 | %6
 B,,2 C,2 G,,4 | C,2 G,,2 C,2 B,,2 | F,,6 C,2 | G,,4 z4 | E,2 E,2 E,2 B,,2 | C,2 G,,2 C,4 | %12
 A,,2 B,,2 E,2 D,2 | C,6 G,,2 | D,4 z4 | G,2 ^F,2 z2 E,2 | B,,2 C,2 G,,4 | C,2 G,,2 C,2 B,,2 | %18
 F,,6 C,2 | G,,8 |] %20

